src/assets/svg/tijd.svg

<svg height="90" viewBox="0 0 90 90" width="90" xmlns="http://www.w3.org/2000/svg"><g fill="none" fill-rule="evenodd"><path d="m78.5711753 45.4905118c0 18.4954992-14.9032601 33.4905119-33.2855877 33.4905119-18.3837747 0-33.2855876-14.9950127-33.2855876-33.4905119s14.9018129-33.4905118 33.2855876-33.4905118c18.3823276 0 33.2855877 14.9950126 33.2855877 33.4905118" fill="#abcfd3"/><path d="m78.5711753 45.4905118c0 18.4954992-14.9032601 33.4905119-33.2855877 33.4905119-18.3837747 0-33.2855876-14.9950127-33.2855876-33.4905119s14.9018129-33.4905118 33.2855876-33.4905118c18.3823276 0 33.2855877 14.9950126 33.2855877 33.4905118z" stroke="#232e38" stroke-linecap="round" stroke-linejoin="round" stroke-width="2"/><path d="m72.9935796 45.666075c0 15.2789539-12.3113259 27.666075-27.4967898 27.666075-15.185464 0-27.4967898-12.3871211-27.4967898-27.666075s12.3113258-27.666075 27.4967898-27.666075c15.1854639 0 27.4967898 12.3871211 27.4967898 27.666075" fill="#fefefe"/><path d="m72.9935796 45.666075c0 15.2789539-12.3113259 27.666075-27.4967898 27.666075-15.185464 0-27.4967898-12.3871211-27.4967898-27.666075s12.3113258-27.666075 27.4967898-27.666075c15.1854639 0 27.4967898 12.3871211 27.4967898 27.666075z" stroke="#232e38" stroke-linecap="round" stroke-linejoin="round" stroke-width="2"/><path d="m47.7887978 45.9122184c0 1.6090007-1.2952435 2.9122184-2.8943989 2.9122184s-2.8943989-1.3032177-2.8943989-2.9122184 1.2952435-2.9122184 2.8943989-2.9122184 2.8943989 1.3032177 2.8943989 2.9122184z" stroke="#212221" stroke-linecap="round" stroke-linejoin="round" stroke-width="2"/><g fill="#212221"><path d="m46.8943989 23.4561092c0 .8037723-.6483453 1.4561092-1.4471994 1.4561092s-1.4471995-.6523369-1.4471995-1.4561092.6483454-1.4561092 1.4471995-1.4561092 1.4471994.6523369 1.4471994 1.4561092"/><path d="m57.8943989 26.4561092c0 .8037723-.6483453 1.4561092-1.4471994 1.4561092s-1.4471995-.6523369-1.4471995-1.4561092.6483454-1.4561092 1.4471995-1.4561092 1.4471994.6523369 1.4471994 1.4561092"/><path d="m64.8943989 34.4561092c0 .8037723-.6483453 1.4561092-1.4471994 1.4561092s-1.4471995-.6523369-1.4471995-1.4561092.6483454-1.4561092 1.4471995-1.4561092 1.4471994.6523369 1.4471994 1.4561092"/><path d="m68.8943989 45.4561092c0 .8037723-.6483453 1.4561092-1.4471994 1.4561092s-1.4471995-.6523369-1.4471995-1.4561092.6483454-1.4561092 1.4471995-1.4561092 1.4471994.6523369 1.4471994 1.4561092"/><path d="m64.8943989 56.4561092c0 .8037723-.6483453 1.4561092-1.4471994 1.4561092s-1.4471995-.6523369-1.4471995-1.4561092.6483454-1.4561092 1.4471995-1.4561092 1.4471994.6523369 1.4471994 1.4561092"/><path d="m57.8943989 64.4561092c0 .8037723-.6483453 1.4561092-1.4471994 1.4561092s-1.4471995-.6523369-1.4471995-1.4561092.6483454-1.4561092 1.4471995-1.4561092 1.4471994.6523369 1.4471994 1.4561092"/><path d="m46.8943989 67.4561092c0 .8037723-.6483453 1.4561092-1.4471994 1.4561092s-1.4471995-.6523369-1.4471995-1.4561092.6483454-1.4561092 1.4471995-1.4561092 1.4471994.6523369 1.4471994 1.4561092"/><path d="m36.8943989 64.4561092c0 .8037723-.6483453 1.4561092-1.4471994 1.4561092s-1.4471995-.6523369-1.4471995-1.4561092.6483454-1.4561092 1.4471995-1.4561092 1.4471994.6523369 1.4471994 1.4561092"/><path d="m27.8943989 56.4561092c0 .8037723-.6483453 1.4561092-1.4471994 1.4561092s-1.4471995-.6523369-1.4471995-1.4561092.6483454-1.4561092 1.4471995-1.4561092 1.4471994.6523369 1.4471994 1.4561092"/><path d="m25.8943989 45.4561092c0 .8037723-.6483453 1.4561092-1.4471994 1.4561092s-1.4471995-.6523369-1.4471995-1.4561092.6483454-1.4561092 1.4471995-1.4561092 1.4471994.6523369 1.4471994 1.4561092"/><path d="m27.8943989 34.4561092c0 .8037723-.6483453 1.4561092-1.4471994 1.4561092s-1.4471995-.6523369-1.4471995-1.4561092.6483454-1.4561092 1.4471995-1.4561092 1.4471994.6523369 1.4471994 1.4561092"/><path d="m36.8943989 26.4561092c0 .8037723-.6483453 1.4561092-1.4471994 1.4561092s-1.4471995-.6523369-1.4471995-1.4561092.6483454-1.4561092 1.4471995-1.4561092 1.4471994.6523369 1.4471994 1.4561092"/></g></g></svg>

<?xml version="1.0" encoding="UTF-8" standalone="no"?>
<svg width="90px" height="90px" viewBox="0 0 90 90" version="1.1" xmlns="http://www.w3.org/2000/svg" xmlns:xlink="http://www.w3.org/1999/xlink" xmlns:sketch="http://www.bohemiancoding.com/sketch/ns">
    <!-- Generator: Sketch 3.5.1 (25234) - http://www.bohemiancoding.com/sketch -->
    <title>tijd</title>
    <desc>Created with Sketch.</desc>
    <defs></defs>
    <g id="Page-1" stroke="none" stroke-width="1" fill="none" fill-rule="evenodd" sketch:type="MSPage">
        <g id="tijd" sketch:type="MSArtboardGroup">
            <path d="M78.5711753,45.4905118 C78.5711753,63.986011 63.6679152,78.9810237 45.2855876,78.9810237 C26.9018129,78.9810237 12,63.986011 12,45.4905118 C12,26.9950126 26.9018129,12 45.2855876,12 C63.6679152,12 78.5711753,26.9950126 78.5711753,45.4905118" id="Fill-7" fill="#ABCFD3" sketch:type="MSShapeGroup"></path>
            <path d="M78.5711753,45.4905118 C78.5711753,63.986011 63.6679152,78.9810237 45.2855876,78.9810237 C26.9018129,78.9810237 12,63.986011 12,45.4905118 C12,26.9950126 26.9018129,12 45.2855876,12 C63.6679152,12 78.5711753,26.9950126 78.5711753,45.4905118 L78.5711753,45.4905118 Z" id="Stroke-8" stroke="#232E38" stroke-width="2" stroke-linecap="round" stroke-linejoin="round" sketch:type="MSShapeGroup"></path>
            <path d="M72.9935796,45.666075 C72.9935796,60.9450289 60.6822537,73.33215 45.4967898,73.33215 C30.3113258,73.33215 18,60.9450289 18,45.666075 C18,30.3871211 30.3113258,18 45.4967898,18 C60.6822537,18 72.9935796,30.3871211 72.9935796,45.666075" id="Fill-10" fill="#FEFEFE" sketch:type="MSShapeGroup"></path>
            <path d="M72.9935796,45.666075 C72.9935796,60.9450289 60.6822537,73.33215 45.4967898,73.33215 C30.3113258,73.33215 18,60.9450289 18,45.666075 C18,30.3871211 30.3113258,18 45.4967898,18 C60.6822537,18 72.9935796,30.3871211 72.9935796,45.666075 L72.9935796,45.666075 Z" id="Stroke-11" stroke="#232E38" stroke-width="2" stroke-linecap="round" stroke-linejoin="round" sketch:type="MSShapeGroup"></path>
            <path d="M47.7887978,45.9122184 C47.7887978,47.5212191 46.4935543,48.8244368 44.8943989,48.8244368 C43.2952435,48.8244368 42,47.5212191 42,45.9122184 C42,44.3032177 43.2952435,43 44.8943989,43 C46.4935543,43 47.7887978,44.3032177 47.7887978,45.9122184 L47.7887978,45.9122184 Z" id="Stroke-12" stroke="#212221" stroke-width="2" stroke-linecap="round" stroke-linejoin="round" sketch:type="MSShapeGroup"></path>
            <path d="M46.8943989,23.4561092 C46.8943989,24.2598815 46.2460536,24.9122184 45.4471995,24.9122184 C44.6483454,24.9122184 44,24.2598815 44,23.4561092 C44,22.6523369 44.6483454,22 45.4471995,22 C46.2460536,22 46.8943989,22.6523369 46.8943989,23.4561092" id="Fill-15" fill="#212221" sketch:type="MSShapeGroup"></path>
            <path d="M57.8943989,26.4561092 C57.8943989,27.2598815 57.2460536,27.9122184 56.4471995,27.9122184 C55.6483454,27.9122184 55,27.2598815 55,26.4561092 C55,25.6523369 55.6483454,25 56.4471995,25 C57.2460536,25 57.8943989,25.6523369 57.8943989,26.4561092" id="Fill-16" fill="#212221" sketch:type="MSShapeGroup"></path>
            <path d="M64.8943989,34.4561092 C64.8943989,35.2598815 64.2460536,35.9122184 63.4471995,35.9122184 C62.6483454,35.9122184 62,35.2598815 62,34.4561092 C62,33.6523369 62.6483454,33 63.4471995,33 C64.2460536,33 64.8943989,33.6523369 64.8943989,34.4561092" id="Fill-17" fill="#212221" sketch:type="MSShapeGroup"></path>
            <path d="M68.8943989,45.4561092 C68.8943989,46.2598815 68.2460536,46.9122184 67.4471995,46.9122184 C66.6483454,46.9122184 66,46.2598815 66,45.4561092 C66,44.6523369 66.6483454,44 67.4471995,44 C68.2460536,44 68.8943989,44.6523369 68.8943989,45.4561092" id="Fill-18" fill="#212221" sketch:type="MSShapeGroup"></path>
            <path d="M64.8943989,56.4561092 C64.8943989,57.2598815 64.2460536,57.9122184 63.4471995,57.9122184 C62.6483454,57.9122184 62,57.2598815 62,56.4561092 C62,55.6523369 62.6483454,55 63.4471995,55 C64.2460536,55 64.8943989,55.6523369 64.8943989,56.4561092" id="Fill-19" fill="#212221" sketch:type="MSShapeGroup"></path>
            <path d="M57.8943989,64.4561092 C57.8943989,65.2598815 57.2460536,65.9122184 56.4471995,65.9122184 C55.6483454,65.9122184 55,65.2598815 55,64.4561092 C55,63.6523369 55.6483454,63 56.4471995,63 C57.2460536,63 57.8943989,63.6523369 57.8943989,64.4561092" id="Fill-20" fill="#212221" sketch:type="MSShapeGroup"></path>
            <path d="M46.8943989,67.4561092 C46.8943989,68.2598815 46.2460536,68.9122184 45.4471995,68.9122184 C44.6483454,68.9122184 44,68.2598815 44,67.4561092 C44,66.6523369 44.6483454,66 45.4471995,66 C46.2460536,66 46.8943989,66.6523369 46.8943989,67.4561092" id="Fill-21" fill="#212221" sketch:type="MSShapeGroup"></path>
            <path d="M36.8943989,64.4561092 C36.8943989,65.2598815 36.2460536,65.9122184 35.4471995,65.9122184 C34.6483454,65.9122184 34,65.2598815 34,64.4561092 C34,63.6523369 34.6483454,63 35.4471995,63 C36.2460536,63 36.8943989,63.6523369 36.8943989,64.4561092" id="Fill-22" fill="#212221" sketch:type="MSShapeGroup"></path>
            <path d="M27.8943989,56.4561092 C27.8943989,57.2598815 27.2460536,57.9122184 26.4471995,57.9122184 C25.6483454,57.9122184 25,57.2598815 25,56.4561092 C25,55.6523369 25.6483454,55 26.4471995,55 C27.2460536,55 27.8943989,55.6523369 27.8943989,56.4561092" id="Fill-23" fill="#212221" sketch:type="MSShapeGroup"></path>
            <path d="M25.8943989,45.4561092 C25.8943989,46.2598815 25.2460536,46.9122184 24.4471995,46.9122184 C23.6483454,46.9122184 23,46.2598815 23,45.4561092 C23,44.6523369 23.6483454,44 24.4471995,44 C25.2460536,44 25.8943989,44.6523369 25.8943989,45.4561092" id="Fill-24" fill="#212221" sketch:type="MSShapeGroup"></path>
            <path d="M27.8943989,34.4561092 C27.8943989,35.2598815 27.2460536,35.9122184 26.4471995,35.9122184 C25.6483454,35.9122184 25,35.2598815 25,34.4561092 C25,33.6523369 25.6483454,33 26.4471995,33 C27.2460536,33 27.8943989,33.6523369 27.8943989,34.4561092" id="Fill-25" fill="#212221" sketch:type="MSShapeGroup"></path>
            <path d="M36.8943989,26.4561092 C36.8943989,27.2598815 36.2460536,27.9122184 35.4471995,27.9122184 C34.6483454,27.9122184 34,27.2598815 34,26.4561092 C34,25.6523369 34.6483454,25 35.4471995,25 C36.2460536,25 36.8943989,25.6523369 36.8943989,26.4561092" id="Fill-26" fill="#212221" sketch:type="MSShapeGroup"></path>
        </g>
    </g>
</svg>
